X:16352
T:Tell Her I Am
S:Trad, arr. Paddy O'Brien
R:jig
E:9
I:speed 350
M:6/8
K:DMix
B/2d/2|edB GFG|DED GFG|DED ~c2A|BGE EBd|\
edB GFG|DED GFG|AGF GBA|GFE D2:|\
d|BAB dBG|BAB dBG|ABA ABA|AGF E2d|\
BAB deg|age ~d2B|BAF GBA|GFE D2:|\
d|:efg efg|dBG AGE|~A2 a aga|bag ~e2 d|1\
efg efg|dBG AGE|agf gba|gfe d^cd:|2\
def gba|gfe ~d2B|BAF GBA|GFE D2||**
\vfill\eject
